static/images/skills/svelte.svg

<svg xmlns="http://www.w3.org/2000/svg" xml:space="preserve" style="fill-rule:evenodd;clip-rule:evenodd;stroke-linejoin:round;stroke-miterlimit:2" viewBox="0 0 1200 900"><path d="M0 0h1200v900H0z" style="fill:#ff9676"/><path d="M110.431 16.936C98.552-.076 75.089-5.118 58.131 5.696l-29.793 19a34.2 34.2 0 0 0-15.48 22.897 36.6 36.6 0 0 0-.572 6.396 36.15 36.15 0 0 0 4.163 16.73 34.4 34.4 0 0 0-5.11 12.782 36.48 36.48 0 0 0 6.245 27.564c11.878 17.011 35.394 22.053 52.3 11.24l29.762-19.001a34.12 34.12 0 0 0 15.438-22.918c.383-2.107.575-4.244.572-6.386a36.2 36.2 0 0 0-4.112-16.709 34.4 34.4 0 0 0 5.112-12.771c.369-2.109.557-4.245.562-6.386a36.4 36.4 0 0 0-6.787-21.178z" style="fill:#ff3e00;fill-rule:nonzero" transform="translate(300.001 150.002)scale(4.68748)"/><path d="M55.219 112.662a24 24 0 0 1-5.954.76 23.63 23.63 0 0 1-19.434-10.187 21.9 21.9 0 0 1-4.081-12.74c.002-1.288.113-2.572.333-3.833.179-.949.419-1.879.719-2.782l.562-1.708 1.519 1.156a38.7 38.7 0 0 0 11.659 5.834l1.104.333-.104 1.104v.573a6.62 6.62 0 0 0 1.228 3.854 7.09 7.09 0 0 0 5.85 3.125 7 7 0 0 0 1.79-.229 6.5 6.5 0 0 0 1.833-.802l29.76-19.094a6.25 6.25 0 0 0 2.904-5.302 6.6 6.6 0 0 0-1.26-3.844 7.125 7.125 0 0 0-7.651-2.832 6.2 6.2 0 0 0-1.821.801l-11.346 7.25a21.9 21.9 0 0 1-6.048 2.656 23.642 23.642 0 0 1-16.921-1.938 23.66 23.66 0 0 1-8.468-7.478 21.95 21.95 0 0 1-4.08-12.74c.001-1.285.113-2.567.332-3.833a20.66 20.66 0 0 1 9.286-13.781l29.792-18.99a21.9 21.9 0 0 1 6.048-2.667 24 24 0 0 1 5.954-.75 23.676 23.676 0 0 1 19.497 10.167 21.94 21.94 0 0 1 4.029 12.75 22.6 22.6 0 0 1-.334 3.844 21 21 0 0 1-.718 2.781l-.562 1.708-1.52-1.114a38.4 38.4 0 0 0-11.658-5.834l-1.104-.343.104-1.105v-.572a6.7 6.7 0 0 0-1.228-3.865 7.13 7.13 0 0 0-5.851-3.063 7 7 0 0 0-1.769.271 6.1 6.1 0 0 0-1.831.802l-29.793 18.99a6.25 6.25 0 0 0-2.799 4.167 7 7 0 0 0-.136 1.104 6.6 6.6 0 0 0 1.228 3.844 7.12 7.12 0 0 0 7.64 2.832 6.2 6.2 0 0 0 1.833-.801l11.367-7.292a21.8 21.8 0 0 1 6.048-2.656 23.664 23.664 0 0 1 25.399 9.417 21.93 21.93 0 0 1 4.08 12.74 21.5 21.5 0 0 1-.343 3.874 20.601 20.601 0 0 1-9.286 13.781l-29.74 18.99a21.8 21.8 0 0 1-6.057 2.667z" style="fill:#fff;fill-rule:nonzero" transform="translate(300.001 150.002)scale(4.68748)"/></svg>

<?xml version="1.0" encoding="UTF-8" standalone="no"?>
<!DOCTYPE svg PUBLIC "-//W3C//DTD SVG 1.1//EN" "http://www.w3.org/Graphics/SVG/1.1/DTD/svg11.dtd">
<svg width="100%" height="100%" viewBox="0 0 1200 900" version="1.1" xmlns="http://www.w3.org/2000/svg" xmlns:xlink="http://www.w3.org/1999/xlink" xml:space="preserve" xmlns:serif="http://www.serif.com/" style="fill-rule:evenodd;clip-rule:evenodd;stroke-linejoin:round;stroke-miterlimit:2;">
    <rect x="0" y="0" width="1200" height="900" style="fill:rgb(255,150,118);"/>
    <g transform="matrix(4.79233,0,0,4.79233,293.291,143.291)">
        <g id="path598" transform="matrix(0.978121,0,0,0.978121,1.40024,1.40027)">
            <path d="M110.431,16.936C98.552,-0.076 75.089,-5.118 58.131,5.696L28.338,24.696C24.307,27.225 20.849,30.567 18.183,34.51C15.517,38.453 13.704,42.909 12.858,47.593C12.481,49.695 12.289,51.839 12.286,53.989C12.304,59.82 13.733,65.56 16.449,70.719C13.902,74.591 12.164,78.939 11.339,83.501C10.494,88.269 10.612,93.211 11.684,97.913C12.757,102.646 14.762,107.117 17.584,111.065C29.462,128.076 52.978,133.118 69.884,122.305L99.646,103.304C103.674,100.772 107.128,97.426 109.787,93.479C112.446,89.532 114.25,85.072 115.084,80.386C115.467,78.279 115.659,76.142 115.656,74C115.649,68.18 114.239,62.449 111.544,57.291C114.091,53.422 115.829,49.078 116.656,44.52C117.025,42.411 117.213,40.275 117.218,38.134C117.22,30.539 114.846,23.134 110.431,16.956L110.431,16.936Z" style="fill:rgb(255,62,0);fill-rule:nonzero;"/>
        </g>
        <g id="path600" transform="matrix(0.978121,0,0,0.978121,1.40024,1.40027)">
            <path d="M55.219,112.662C53.262,113.166 51.266,113.421 49.265,113.422C45.444,113.423 41.68,112.497 38.295,110.722C34.91,108.948 32.006,106.379 29.831,103.235C27.175,99.519 25.748,95.064 25.75,90.495C25.752,89.207 25.863,87.923 26.083,86.662C26.262,85.713 26.502,84.783 26.802,83.88L27.364,82.172L28.883,83.328C32.412,85.919 36.354,87.892 40.542,89.162L41.646,89.495L41.542,90.599L41.542,91.172C41.539,92.553 41.969,93.902 42.77,95.026C43.417,95.984 44.288,96.77 45.308,97.314C46.352,97.865 47.48,98.15 48.62,98.151C49.222,98.153 49.822,98.077 50.41,97.922C51.048,97.755 51.665,97.485 52.243,97.12L82.003,78.026C82.896,77.46 83.631,76.677 84.139,75.75C84.646,74.823 84.91,73.782 84.907,72.724C84.899,71.343 84.458,69.999 83.647,68.88C82.99,67.934 82.114,67.162 81.094,66.628C80.049,66.089 78.924,65.813 77.787,65.818C77.185,65.816 76.584,65.893 75.996,66.048C75.361,66.211 74.748,66.481 74.175,66.849L62.829,74.099C60.92,75.302 58.886,76.195 56.781,76.755C54.836,77.257 52.836,77.513 50.827,77.515C47.007,77.515 43.244,76.589 39.86,74.817C36.475,73.045 33.57,70.479 31.392,67.339C28.74,63.621 27.313,59.167 27.312,54.599C27.313,53.314 27.425,52.032 27.644,50.766C28.154,47.95 29.242,45.271 30.841,42.899C32.439,40.526 34.513,38.512 36.93,36.985L66.722,17.995C68.592,16.805 70.631,15.905 72.77,15.328C74.716,14.829 76.716,14.578 78.724,14.578C82.553,14.568 86.327,15.488 89.723,17.259C93.119,19.029 96.035,21.599 98.221,24.745C100.858,28.472 102.266,32.929 102.25,37.495C102.248,38.787 102.136,40.075 101.916,41.339C101.738,42.287 101.498,43.217 101.198,44.12L100.636,45.828L99.116,44.714C95.591,42.119 91.648,40.146 87.458,38.88L86.354,38.537L86.458,37.432L86.458,36.86C86.458,35.475 86.029,34.125 85.23,32.995C84.574,32.05 83.7,31.279 82.68,30.745C81.638,30.206 80.514,29.929 79.379,29.932C78.783,29.945 78.19,30.036 77.61,30.203C76.971,30.363 76.354,30.634 75.779,31.005L45.986,49.995C45.28,50.436 44.655,51.045 44.15,51.785C43.678,52.476 43.349,53.29 43.187,54.162C43.113,54.524 43.068,54.894 43.051,55.266C43.05,56.644 43.479,57.988 44.279,59.11C44.935,60.055 45.809,60.827 46.828,61.36C47.871,61.899 48.994,62.176 50.129,62.172C50.731,62.174 51.331,62.097 51.919,61.942C52.559,61.78 53.176,61.51 53.752,61.141L65.119,53.849C67.028,52.644 69.062,51.751 71.167,51.193C73.124,50.689 75.119,50.435 77.121,50.433C80.942,50.433 84.707,51.358 88.093,53.13C91.479,54.902 94.387,57.469 96.566,60.61C99.219,64.327 100.646,68.781 100.646,73.35C100.649,74.649 100.534,75.946 100.303,77.224C99.797,80.041 98.709,82.721 97.111,85.094C95.512,87.466 93.437,89.479 91.017,91.005L61.277,109.995C59.366,111.204 57.329,112.101 55.22,112.662L55.219,112.662Z" style="fill:white;fill-rule:nonzero;"/>
        </g>
    </g>
</svg>
